X:103
T:Scottish \`a Malochet
R:Schottische
O:France
N:variation of 59 (A \& B reversed)
M:C
C:Trad.
K:G
B2G2A2GA|B2G2D4|DEFG ABcd|1ed^cdB2G2:|2ed^cdG4::\
B2B2B2AB|dcBcA4|DEFG ABcd|1ed^cdB2G2:|2ed^cdG4||
